public/assets/img/icons/design-build.svg

<svg id="eXFW1zPQHNp1" xmlns="http://www.w3.org/2000/svg" xmlns:xlink="http://www.w3.org/1999/xlink" viewBox="0 0 45 46" shape-rendering="geometricPrecision" text-rendering="geometricPrecision" project-id="355b16d6c94c4fd5a3eae92c7732f7df" export-id="24c38037001f4d07a539b108b7a54a9c" cached="false">
<style><![CDATA[
#eXFW1zPQHNp4 {animation: eXFW1zPQHNp4_s_do 3000ms linear infinite normal forwards}@keyframes eXFW1zPQHNp4_s_do { 0% {stroke-dashoffset: 70.26} 33.333333% {stroke-dashoffset: 0} 100% {stroke-dashoffset: 0}} #eXFW1zPQHNp5_ts {animation: eXFW1zPQHNp5_ts__ts 3000ms linear infinite normal forwards}@keyframes eXFW1zPQHNp5_ts__ts { 0% {transform: translate(32.36775px,29.8203px) scale(0.8,0.8)} 26% {transform: translate(32.36775px,29.8203px) scale(0.8,0.8)} 50% {transform: translate(32.36775px,29.8203px) scale(1,1)} 100% {transform: translate(32.36775px,29.8203px) scale(1,1)}} #eXFW1zPQHNp5 {animation: eXFW1zPQHNp5_c_o 3000ms linear infinite normal forwards}@keyframes eXFW1zPQHNp5_c_o { 0% {opacity: 0} 33.333333% {opacity: 0} 50% {opacity: 1} 100% {opacity: 1}} #eXFW1zPQHNp6_ts {animation: eXFW1zPQHNp6_ts__ts 3000ms linear infinite normal forwards}@keyframes eXFW1zPQHNp6_ts__ts { 0% {transform: translate(32.36775px,35.856171px) scale(0.8,0.8)} 26% {transform: translate(32.36775px,35.856171px) scale(0.8,0.8)} 50% {transform: translate(32.36775px,35.856171px) scale(1,1)} 100% {transform: translate(32.36775px,35.856171px) scale(1,1)}} #eXFW1zPQHNp6 {animation: eXFW1zPQHNp6_c_o 3000ms linear infinite normal forwards}@keyframes eXFW1zPQHNp6_c_o { 0% {opacity: 0} 33.333333% {opacity: 0} 50% {opacity: 1} 100% {opacity: 1}}
]]></style>
<path d="M14.8203,43.7382v-41.26213h23.5353v15.40733" fill="none" stroke="#ee3524" stroke-width="1.5" stroke-linecap="round" stroke-linejoin="round"/><path d="M14.8203,7.27075h23.5353" fill="none" stroke="#ee3524" stroke-width="1.5" stroke-linecap="round" stroke-linejoin="round"/><path id="eXFW1zPQHNp4" d="M22.1602,26.2183L32.3929,20.26l10.1337,5.9583v11.5038L32.3434,43.7382L22.1602,37.7221v-11.5038Z" fill="none" stroke="#ee3524" stroke-width="1.5" stroke-linecap="round" stroke-linejoin="round" stroke-dashoffset="70.26" stroke-dasharray="70.26"/><g id="eXFW1zPQHNp5_ts" transform="translate(32.36775,29.8203) scale(0.8,0.8)"><path id="eXFW1zPQHNp5" d="M24.5859,27.6458l7.7571,4.349l7.8066-4.349" transform="translate(-32.36775,-29.8203)" opacity="0" fill="none" stroke="#ee3524" stroke-width="1.5" stroke-linecap="round" stroke-linejoin="round"/></g><g id="eXFW1zPQHNp6_ts" transform="translate(32.36775,35.856171) scale(0.8,0.8)"><path id="eXFW1zPQHNp6" d="M32.3438,31.9949v7.8893" transform="translate(-32.3438,-35.93955)" opacity="0" fill="none" stroke="#ee3524" stroke-width="1.5" stroke-linecap="round" stroke-linejoin="round"/></g><path d="M4.16797,43.738h20.04453" fill="none" stroke="#ee3524" stroke-width="1.5" stroke-linecap="round" stroke-linejoin="round"/><path d="M14.8203,20.26h7.2124" fill="none" stroke="#ee3524" stroke-width="1.5" stroke-linecap="round" stroke-linejoin="round"/><path d="M8.49609,43.4493v-12.1888" fill="none" stroke="#ee3524" stroke-width="1.5" stroke-linecap="round" stroke-linejoin="round"/><path d="M6.01074,26.5238c-1.05628-.7674-1.74121-2.0136-1.74121-3.4165c0-2.3272,1.88975-4.2252,4.22512-4.2252c1.64215,0,3.06155.9408,3.76305,2.3107" fill="none" stroke="#ee3524" stroke-width="1.5" stroke-linecap="round" stroke-linejoin="round"/><path d="M8.49241,38.011c-3.32563,0-6.01585-2.6902-6.01585-6.016s2.69022-6.016,6.01585-6.016" fill="none" stroke="#ee3524" stroke-width="1.5" stroke-linecap="round" stroke-linejoin="round"/></svg>

<svg width="45" height="46" viewBox="0 0 45 46" fill="none" xmlns="http://www.w3.org/2000/svg">
<path d="M14.8203 43.7382V2.47607H38.3556V17.8834" stroke="#EE3524" stroke-width="1.5" stroke-linecap="round" stroke-linejoin="round"/>
<path d="M14.8203 7.27075H38.3556" stroke="#EE3524" stroke-width="1.5" stroke-linecap="round" stroke-linejoin="round"/>
<path d="M22.1602 26.2183L32.3929 20.26L42.5266 26.2183V37.7221L32.3434 43.7382L22.1602 37.7221V26.2183Z" stroke="#EE3524" stroke-width="1.5" stroke-linecap="round" stroke-linejoin="round"/>
<path d="M24.5859 27.6458L32.343 31.9948L40.1496 27.6458" stroke="#EE3524" stroke-width="1.5" stroke-linecap="round" stroke-linejoin="round"/>
<path d="M32.3438 31.9949V39.8842" stroke="#EE3524" stroke-width="1.5" stroke-linecap="round" stroke-linejoin="round"/>
<path d="M4.16797 43.738H24.2125" stroke="#EE3524" stroke-width="1.5" stroke-linecap="round" stroke-linejoin="round"/>
<path d="M14.8203 20.26H22.0327" stroke="#EE3524" stroke-width="1.5" stroke-linecap="round" stroke-linejoin="round"/>
<path d="M8.49609 43.4493V31.2605" stroke="#EE3524" stroke-width="1.5" stroke-linecap="round" stroke-linejoin="round"/>
<path d="M6.01074 26.5238C4.95446 25.7564 4.26953 24.5102 4.26953 23.1073C4.26953 20.7801 6.15928 18.8821 8.49465 18.8821C10.1368 18.8821 11.5562 19.8229 12.2577 21.1928" stroke="#EE3524" stroke-width="1.5" stroke-linecap="round" stroke-linejoin="round"/>
<path d="M8.49241 38.011C5.16678 38.011 2.47656 35.3208 2.47656 31.995C2.47656 28.6693 5.16678 25.979 8.49241 25.979" stroke="#EE3524" stroke-width="1.5" stroke-linecap="round" stroke-linejoin="round"/>
</svg>
